symbols/hunting_stand.svg

<?xml version="1.0" encoding="UTF-8" standalone="no"?>
<!-- Generator: Adobe Illustrator 16.0.0, SVG Export Plug-In . SVG Version: 6.00 Build 0)  -->

<svg
   xmlns:dc="http://purl.org/dc/elements/1.1/"
   xmlns:cc="http://creativecommons.org/ns#"
   xmlns:rdf="http://www.w3.org/1999/02/22-rdf-syntax-ns#"
   xmlns:svg="http://www.w3.org/2000/svg"
   xmlns="http://www.w3.org/2000/svg"
   xmlns:sodipodi="http://sodipodi.sourceforge.net/DTD/sodipodi-0.dtd"
   xmlns:inkscape="http://www.inkscape.org/namespaces/inkscape"
   version="1.1"
   id="Layer_1"
   x="0px"
   y="0px"
   width="20px"
   height="20px"
   viewBox="0 0 20 20"
   enable-background="new 0 0 20 20"
   xml:space="preserve"
   inkscape:version="0.91 r13725"
   sodipodi:docname="hunting_stand.svg"><metadata
     id="metadata15"><rdf:RDF><cc:Work
         rdf:about=""><dc:format>image/svg+xml</dc:format><dc:type
           rdf:resource="http://purl.org/dc/dcmitype/StillImage" /></cc:Work></rdf:RDF></metadata><defs
     id="defs13"><pattern
       y="0"
       x="0"
       height="6"
       width="6"
       patternUnits="userSpaceOnUse"
       id="EMFhbasepattern" /></defs><sodipodi:namedview
     pagecolor="#ffffff"
     bordercolor="#666666"
     borderopacity="1"
     objecttolerance="10"
     gridtolerance="10"
     guidetolerance="10"
     inkscape:pageopacity="0"
     inkscape:pageshadow="2"
     inkscape:window-width="1091"
     inkscape:window-height="685"
     id="namedview11"
     showgrid="false"
     inkscape:zoom="29.5"
     inkscape:cx="7.0169488"
     inkscape:cy="13.09322"
     inkscape:window-x="0"
     inkscape:window-y="0"
     inkscape:window-maximized="0"
     inkscape:current-layer="Layer_1" /><path
     inkscape:connector-curvature="0"
     id="path4148"
     d="m 15.08556,3.3077264 0,6.0484584 1.615555,9.4861172 c 0.05898,0.295336 -0.02358,0.578849 -0.212244,0.803281 C 16.288385,19.881873 16.02895,20 15.722357,20 l -1.521239,0 C 13.70586,20 13.304919,19.657406 13.22236,19.173074 L 13.021906,18.05081 10.003038,15.593607 6.9723815,18.05081 6.7836837,19.173074 C 6.7011507,19.657406 6.288406,20 5.8049183,20 l -1.521226,0 C 3.9770901,20 3.7176555,19.881873 3.5171844,19.645583 3.3285054,19.421151 3.2459588,19.137638 3.2931288,18.842302 l 1.6155649,-9.4861172 0,-6.0484584 -0.1886813,0 c -0.5424524,0 -0.9905646,-0.4607117 -0.9905646,-1.0041222 l 0,-1.2994715 C 3.7294478,0.44890622 4.17756,0 4.7200124,0 L 15.274258,0 c 0.554238,0 1.002337,0.44890622 1.002337,1.0041327 l 0,1.2994715 c 0,0.5434105 -0.448099,1.0041222 -1.002337,1.0041222 z"
     style="fill:#ffffff;fill-opacity:1;fill-rule:evenodd;stroke:none" /><path
     inkscape:connector-curvature="0"
     id="path4150"
     d="m 4.7169923,0.99822233 1.1910381,0 8.1839636,0 1.179244,0 0,1.29947157 -1.179244,0 0,7.1352733 1.627343,9.5688108 -1.521239,0 -0.247612,-1.500292 -0.0118,0.0118 -3.938677,-3.225051 -3.950481,3.225051 0,-0.0118 -0.2476388,1.500292 -1.5212259,0 1.6273582,-9.5688108 0,-7.1352733 -1.1910393,0 z m 8.8797107,14.45952467 -0.613219,-3.591256 -1.89857,1.54755 z m -0.872654,-5.150595 -0.05894,-0.3071581 -5.3301999,0 -0.058943,0.3071581 2.7240639,2.220914 z m -5.7075294,1.559339 -0.6132092,3.591256 2.5117775,-2.043706 z"
     style="fill:#000000;fill-opacity:1;fill-rule:evenodd;stroke:none" /><path
     inkscape:connector-curvature="0"
     id="path4152"
     d="m 7.2833168,6.5832513 5.3655702,0 0,-4.2173497 -5.3655702,0 z"
     style="fill:#ffffff;fill-opacity:1;fill-rule:evenodd;stroke:none" /></svg>

<svg xmlns="http://www.w3.org/2000/svg" width="20" height="20"><path d="M15.086 3.308v6.048l1.615 9.486a.942.942 0 01-.212.804.966.966 0 01-.767.354h-1.52a.98.98 0 01-.98-.827l-.2-1.122-3.019-2.457-3.03 2.457-.19 1.122a.988.988 0 01-.978.827H4.284a.966.966 0 01-.767-.354.988.988 0 01-.224-.804L4.91 9.356V3.308H4.72c-.542 0-.99-.461-.99-1.004v-1.3A1 1 0 014.72 0h10.554c.554 0 1.003.449 1.003 1.004v1.3a1.01 1.01 0 01-1.003 1.004z" fill="#fff" fill-rule="evenodd"/><path d="M4.717.998h10.555v1.3h-1.18v7.135l1.627 9.569H14.2l-.249-1.5-.011.011L10 14.288l-3.95 3.225v-.012l-.248 1.5H4.28l1.627-9.568V2.298H4.717zm8.88 14.46l-.614-3.592-1.898 1.548zm-.873-5.15L12.665 10h-5.33l-.059.307L10 12.528zm-5.707 1.558l-.614 3.592 2.512-2.044z" fill-rule="evenodd"/><path d="M7.283 6.583h5.366V2.366H7.283z" fill="#fff" fill-rule="evenodd"/></svg>
